public/images/trusted/ika.svg

<svg xmlns="http://www.w3.org/2000/svg" width="712" height="403"><path d="M16 201v190h38V11H16v190m89 0v190h38V11h-38v190M239.5 93.184l-86 82.031-.267 26.493-.266 26.494 9.766-9.187 9.767-9.187 6.5 7.042c3.575 3.873 42.275 44.63 86 90.572l79.5 83.532 26.35.013 26.351.013-11.351-11.848C309.957 299.929 200.5 184.808 200.5 184.21c0-.42 37.35-36.472 83-80.114 45.65-43.643 86.146-82.443 89.991-86.223L380.483 11l-27.492.077-27.491.076-86 82.031M494 189.186c-34.925 97.985-65.393 183.479-67.706 189.985L422.088 391l20.206-.022 20.206-.022 57-159.532c31.35-87.743 57.402-161.023 57.894-162.846.779-2.887-.37-6.817-8.902-30.446-5.387-14.923-10.065-27.125-10.394-27.117-.329.008-29.173 80.185-64.098 178.171m88.267-105.487c-.531 1.541-4.904 14.12-9.717 27.954l-8.753 25.153 24.102 67.637C601.154 241.644 612 272.513 612 273.04c0 .6-18.311.96-48.821.96h-48.821l-6.562 18.75-6.562 18.75 62.509.5 62.51.5 14.089 39.25 14.09 39.25H694.693l-55.112-154.432C609.269 151.63 584.19 81.857 583.85 81.517c-.34-.341-1.053.641-1.583 2.182" fill="#fff" fill-rule="evenodd"/></svg>

<svg xmlns="http://www.w3.org/2000/svg" width="712" height="403" viewBox="0 0 712 403" version="1.1"><path d="" stroke="none" fill="#080404" fill-rule="evenodd"/><path d="M 16 201 L 16 391 35 391 L 54 391 54 201 L 54 11 35 11 L 16 11 16 201 M 105 201 L 105 391 124 391 L 143 391 143 201 L 143 11 124 11 L 105 11 105 201 M 239.500 93.184 L 153.500 175.215 153.233 201.708 L 152.967 228.202 162.733 219.015 L 172.500 209.828 179 216.870 C 182.575 220.743, 221.275 261.500, 265 307.442 L 344.500 390.974 370.850 390.987 L 397.201 391 385.850 379.152 C 309.957 299.929, 200.500 184.808, 200.500 184.210 C 200.500 183.790, 237.850 147.738, 283.500 104.096 C 329.150 60.453, 369.646 21.653, 373.491 17.873 L 380.483 11 352.991 11.077 L 325.500 11.153 239.500 93.184 M 494 189.186 C 459.075 287.171, 428.607 372.665, 426.294 379.171 L 422.088 391 442.294 390.978 L 462.500 390.956 519.500 231.424 C 550.850 143.681, 576.902 70.401, 577.394 68.578 C 578.173 65.691, 577.024 61.761, 568.492 38.132 C 563.105 23.209, 558.427 11.007, 558.098 11.015 C 557.769 11.023, 528.925 91.200, 494 189.186 M 582.267 83.699 C 581.736 85.240, 577.363 97.819, 572.550 111.653 L 563.797 136.806 587.899 204.443 C 601.154 241.644, 612 272.513, 612 273.040 C 612 273.640, 593.689 274, 563.179 274 L 514.358 274 507.796 292.750 L 501.234 311.500 563.743 312 L 626.253 312.500 640.342 351.750 L 654.432 391 674.562 391 L 694.693 391 639.581 236.568 C 609.269 151.630, 584.190 81.857, 583.850 81.517 C 583.510 81.176, 582.797 82.158, 582.267 83.699" stroke="none" fill="#ffffff" fill-rule="evenodd"/></svg>
